X:1
T:Title
%%score { ( 1 2 4 ) | 3 } 5
L:1/8
Q:1/4=85
M:9/8
K:D
V:1 treble nm="Grand Piano, Soprano"
V:2 treble 
V:4 treble 
V:3 treble 
V:5 bass nm="Choir Pad, He Is Caring for Me"
V:1
 z3 .A6 | z3 z3 A3 | A3 .c6 | z B2- B/ z/ z z z3 | z3 .d6 | z3 z3 .B3 | d3 .d6 | AG>E D6 | %8
[Q:1/4=95] A3 e3- ecA | GBA F d2- d2- d/ z/ | d3 d3- dcB | Bcd e6 | A3 d3- dce | eA>F E3 B3 | %14
 d3 d3- dEF | AG>E D6- | D3 z3 z3 |] %17
V:2
 A3 z FF FFD | BA>D C3 z EE | z GG z GG GBG | z3 F6 | A3 z AA Ace | dA>F EEE z GG | z BB z AA AEF | %7
 x9 | x9 | x9 | x9 | x9 | x9 | x9 | x9 | x9 | x9 |] %17
V:3
 [DF]3 [DF]DD D .D2 | [DG][DF]>[K:bass][F,A,] A,A,A, [CE][K:treble]CC | [EG]EE [EG]EE E[EG][CE] | %3
 C[CEG]>[CEG] [A,D]A,A, DDD | [DF]3 [DFA][DF][DF] [DF][DFA][DFA] | %5
 [FA][DF]>D [G,B,][G,B,][G,B,] [EG]EE | [=FB]FF [^FA]FF F[A,C][A,D] | [CE][CE]>[A,C] A,6 | %8
 z3 G3- GGG | EGE D F2- F2- F/ z/ | G3 ^G3- GGG | ^GGG =G6 | G3 F3- FEG | FF>D z3 E3 | %14
 =F3 ^F3- FCD | FE>C z3 z3 | z9 |] %17
V:4
 x9 | x9 | x9 | .E2 z/ A/ z DD z3 | x9 | x9 | x9 | x9 | x9 | x9 | x9 | x9 | x9 | x9 | x9 | x9 | %16
 x9 |] %17
V:5
 z3 [D,,F,,A,,D,]3 [A,,D,F,A,]3 | [D,,D,]3 [E,,A,,C,E,]3 [A,,C,E,A,]3 | %2
 [A,C]3 [A,,C,E,A,]3 [C,E,A,C]3 | [A,,C,E,]3 [D,,F,,A,,D,]3 [A,,D,F,A,]3 | %4
 [D,F,A,]3 [D,,F,,A,,D,]3 [A,,D,F,A,]3 | [D,F,A,]3 [E,,G,,B,,E,]3 [E,G,B,D]3 | %6
 [^G,B,D]3 A,F,D, .[A,,D,]3 | [A,,C,E,G,]3 [D,F,]6 | A,3 [A,C]3- [A,C]A,[A,C] | %9
 [A,C][A,E][A,C] [D,D] [D,A,]2- [D,A,]2- [D,A,]/ z/ | [D,B,]3 [E,B,]3- [E,B,][E,C][E,D] | %11
 [E,D][E,C][E,B,] [A,C]6 | [A,C]3 [D,D]3- [D,D][D,D][D,D] | [D,D][D,D]>[D,A,] [G,B,]3 [G,B,]3 | %14
 [^G,B,]3 A,3- A,/ z/ A,A, | [A,,A,][A,,A,]>[A,,G,] [D,F,]6- | [D,F,]3 z3 z3 |] %17

